communes/5881.svg

<?xml version="1.0" encoding="UTF-8"?>
<svg version="1.0" viewBox="0 0 603 763" xmlns="http://www.w3.org/2000/svg" xmlns:cc="http://creativecommons.org/ns#" xmlns:dc="http://purl.org/dc/elements/1.1/" xmlns:rdf="http://www.w3.org/1999/02/22-rdf-syntax-ns#" xmlns:xlink="http://www.w3.org/1999/xlink">
<metadata>
<rdf:RDF>
<cc:Work rdf:about="">
<dc:format>image/svg+xml</dc:format>
<dc:type rdf:resource="http://purl.org/dc/dcmitype/StillImage"/>
<dc:date>07-AUG-2006</dc:date>
<dc:creator>
<cc:Agent>
<dc:title>Jérôme BLUM (wagner51)</dc:title>
</cc:Agent>
</dc:creator>
<cc:license rdf:resource="http://creativecommons.org/licenses/GPL/2.0/"/>
<dc:coverage/>
<dc:description>Gabarit pour le Projet:Blasons de WIkipédia</dc:description>
<dc:subject>
<rdf:Bag>
<rdf:li>blason suisse modèle gabarit projet blasons</rdf:li>
</rdf:Bag>
</dc:subject>
<dc:language>fr</dc:language>
<dc:title>Gabrit d'un blason suisse</dc:title>
</cc:Work>
<cc:License rdf:about="http://creativecommons.org/licenses/GPL/2.0/">
<cc:permits rdf:resource="http://web.resource.org/cc/Reproduction"/>
<cc:permits rdf:resource="http://web.resource.org/cc/Distribution"/>
<cc:requires rdf:resource="http://web.resource.org/cc/Notice"/>
<cc:permits rdf:resource="http://web.resource.org/cc/DerivativeWorks"/>
<cc:requires rdf:resource="http://web.resource.org/cc/ShareAlike"/>
<cc:requires rdf:resource="http://web.resource.org/cc/SourceCode"/>
</cc:License>
</rdf:RDF>
</metadata>
<defs>
<radialGradient id="a" cx="858.04" cy="579.93" r="300" gradientTransform="matrix(1.215 1.5316e-24 1.4647e-23 1.2667 -839.19 -490.49)" gradientUnits="userSpaceOnUse">
<stop stop-color="#fff" stop-opacity=".31373" offset="0"/>
<stop stop-color="#fff" stop-opacity=".25098" offset=".19"/>
<stop stop-color="#6b6b6b" stop-opacity=".12549" offset=".6"/>
<stop stop-opacity=".12549" offset="1"/>
</radialGradient>
</defs>
<desc>Coat of Arms of Canton of Freiburg (Fribourg)</desc>
<g>
<path d="m1.5 1.5v458.87c0 166.31 134.31 301.13 300 301.13 165.69 0 300-134.82 300-301.13v-458.87h-600z" fill="#fcef3c"/>
<path d="m412.9 147.4c-53.333 0-94 52-111.4 80.667-17.4-28.667-58.067-80.667-111.4-80.667s-98 45.333-98 130.67 61.468 192 209.4 328.67c147.93-136.67 209.4-243.33 209.4-328.67s-44.667-130.67-98-130.67zm20.666 246.67c-54 85.333-121.7 142.97-132.07 153.33-10.367-10.367-78.068-68-132.07-153.33s-44-204.67 24-204.67c41.333 0 97.469 76 108.07 129.33 10.599-53.333 66.734-129.33 108.07-129.33 68.001 0 78 119.33 24 204.67z" fill="#e20909"/>
<path d="m510.9 439.93c0-85.333-61.468-192-209.4-328.67-147.93 136.67-209.4 243.33-209.4 328.67 0 85.334 44.667 130.67 98 130.67s94-52 111.4-80.666c17.4 28.666 58.067 80.666 111.4 80.666s98-45.332 98-130.67zm-101.33 88.668c-41.333 0-97.469-76-108.07-129.33-10.599 53.334-66.734 129.33-108.07 129.33-68 0-78-119.33-24-204.67s121.7-142.97 132.07-153.33c10.367 10.367 78.067 68 132.07 153.33s44.001 204.67-24 204.67z" fill="#e20909"/>
<path d="m466.5 302.76c-33.626-56.417-87.424-119.83-165-191.5-20.379 18.828-39.118 37.085-56.28 54.797m31.306 357.76c10.677-12.027 19.135-24.273 24.974-33.892 17.4 28.666 58.067 80.666 111.4 80.666s98-45.332 98-130.67c0-25.065-5.304-51.971-16.544-80.937m-277.38-162.71c-87.239 97.043-124.87 176.87-124.87 243.64 0 85.334 44.667 130.67 98 130.67 20.431 0 39.004-7.631 55.122-18.658m-28.247-30.226c-8.094 4.396-16.061 6.886-23.543 6.886-68 0-78-119.33-24-204.67 25.941-40.993 55.044-75.594 79.433-101.63m217.63 192.93c7.892 60.512-11.675 113.37-56.931 113.37-41.333 0-97.469-76-108.07-129.33-6.148 30.938-27.618 69.502-52.634 96.435m27.658-301.52c12.596-12.215 21.682-20.284 24.977-23.579 10.367 10.367 78.067 68 132.07 153.33 7.024 11.101 12.966 22.776 17.838 34.69" fill="none" stroke="#000" stroke-miterlimit="18" stroke-width="3"/>
<path d="m386.02 521.71c87.242-97.045 124.88-176.88 124.88-243.65 0-85.333-44.667-130.67-98-130.67-20.431 0-39.003 7.631-55.121 18.659m-221.28 249.18c33.626 56.417 87.423 119.83 165 191.5 20.378-18.827 39.115-37.084 56.278-54.795m-31.305-357.76c-10.677 12.027-19.135 24.273-24.974 33.892-17.4-28.667-58.067-80.667-111.4-80.667s-98 45.333-98 130.67c0 25.064 5.303 51.968 16.542 80.933m27.86-56.234c-7.892-60.511 11.674-113.37 56.93-113.37 41.333 0 97.469 76 108.07 129.33 6.147-30.937 27.618-69.501 52.634-96.434m-27.659 301.52c-12.595 12.214-21.68 20.282-24.975 23.577-10.367-10.367-78.068-68-132.07-153.33-7.097-11.216-13.089-23.019-17.989-35.061m234.58-162.72c8.095-4.396 16.062-6.886 23.543-6.886 68.001 0 78 119.33 24 204.67-25.941 40.994-55.045 75.595-79.435 101.63" fill="none" stroke="#000" stroke-miterlimit="18" stroke-width="3"/>
</g>
<g>
<path d="m1.5 1.5v458.87c0 166.31 134.31 301.13 300 301.13 165.69 0 300-134.82 300-301.13v-458.87h-600z" fill="url(#a)"/>
<path d="m1.5 1.5v458.87c0 166.31 134.31 301.13 300 301.13 165.69 0 300-134.82 300-301.13v-458.87h-600z" fill="none" stroke="#000" stroke-width="3"/>
</g>
</svg>

<?xml version="1.0" encoding="UTF-8" standalone="no"?>
<svg
   xmlns:dc="http://purl.org/dc/elements/1.1/"
   xmlns:cc="http://creativecommons.org/ns#"
   xmlns:rdf="http://www.w3.org/1999/02/22-rdf-syntax-ns#"
   xmlns:svg="http://www.w3.org/2000/svg"
   xmlns="http://www.w3.org/2000/svg"
   xmlns:xlink="http://www.w3.org/1999/xlink"
   xmlns:sodipodi="http://sodipodi.sourceforge.net/DTD/sodipodi-0.dtd"
   xmlns:inkscape="http://www.inkscape.org/namespaces/inkscape"
   height="763"
   width="603"
   version="1.0"
   id="svg20"
   sodipodi:version="0.32"
   inkscape:version="0.46"
   sodipodi:docname="Blonay-coat_of_arms.svg"
   sodipodi:docbase="C:\Documents and Settings\Steve\Bureau\Blason Villages Suisse pour Wikipédia (par Delta-9)"
   inkscape:output_extension="org.inkscape.output.svg.inkscape">
  <metadata
     id="metadata31">
    <rdf:RDF>
      <cc:Work
         rdf:about="">
        <dc:format>image/svg+xml</dc:format>
        <dc:type
           rdf:resource="http://purl.org/dc/dcmitype/StillImage" />
        <dc:date>07-AUG-2006</dc:date>
        <dc:creator>
          <cc:Agent>
            <dc:title>Jérôme BLUM (wagner51)</dc:title>
          </cc:Agent>
        </dc:creator>
        <cc:license
           rdf:resource="http://creativecommons.org/licenses/GPL/2.0/" />
        <dc:coverage />
        <dc:description>Gabarit pour le Projet:Blasons de WIkipédia</dc:description>
        <dc:subject>
          <rdf:Bag>
            <rdf:li>blason suisse modèle gabarit projet blasons</rdf:li>
          </rdf:Bag>
        </dc:subject>
        <dc:language>fr</dc:language>
        <dc:title>Gabrit d'un blason suisse</dc:title>
      </cc:Work>
      <cc:License
         rdf:about="http://creativecommons.org/licenses/GPL/2.0/">
        <cc:permits
           rdf:resource="http://web.resource.org/cc/Reproduction" />
        <cc:permits
           rdf:resource="http://web.resource.org/cc/Distribution" />
        <cc:requires
           rdf:resource="http://web.resource.org/cc/Notice" />
        <cc:permits
           rdf:resource="http://web.resource.org/cc/DerivativeWorks" />
        <cc:requires
           rdf:resource="http://web.resource.org/cc/ShareAlike" />
        <cc:requires
           rdf:resource="http://web.resource.org/cc/SourceCode" />
      </cc:License>
    </rdf:RDF>
  </metadata>
  <defs
     id="defs29"><inkscape:perspective
   sodipodi:type="inkscape:persp3d"
   inkscape:vp_x="0 : 381.5 : 1"
   inkscape:vp_y="0 : 1000 : 0"
   inkscape:vp_z="603 : 381.5 : 1"
   inkscape:persp3d-origin="301.5 : 254.33333 : 1"
   id="perspective28" />
<linearGradient
   id="linearGradient2893">
  <stop
     style="stop-color:#ffffff;stop-opacity:0.3137255;"
     offset="0"
     id="stop2895" />
  <stop
     id="stop2897"
     offset="0.19"
     style="stop-color:#ffffff;stop-opacity:0.25098041;" />
  <stop
     style="stop-color:#6b6b6b;stop-opacity:0.1254902;"
     offset="0.60000002"
     id="stop2901" />
  <stop
     style="stop-color:#000000;stop-opacity:0.1254902;"
     offset="1"
     id="stop2899" />
</linearGradient>
<linearGradient
   id="linearGradient2955">
  <stop
     style="stop-color:white;stop-opacity:0;"
     offset="0"
     id="stop2965" />
  <stop
     style="stop-color:black;stop-opacity:0.64583331;"
     offset="1"
     id="stop2959" />
</linearGradient>
<radialGradient
   inkscape:collect="always"
   xlink:href="#linearGradient2893"
   id="radialGradient3236"
   gradientUnits="userSpaceOnUse"
   gradientTransform="matrix(1.215027,1.531577e-24,1.464684e-23,1.266667,-839.1924,-490.4894)"
   cx="858.04236"
   cy="579.93323"
   fx="858.04236"
   fy="579.93323"
   r="300" />
<inkscape:perspective
   id="perspective2580"
   inkscape:persp3d-origin="297.63751 : 280.63 : 1"
   inkscape:vp_z="595.27502 : 420.94501 : 1"
   inkscape:vp_y="0 : 1000 : 0"
   inkscape:vp_x="0 : 420.94501 : 1"
   sodipodi:type="inkscape:persp3d" />

	
	
	
	

	
</defs>
  <sodipodi:namedview
     inkscape:window-height="806"
     inkscape:window-width="1189"
     inkscape:pageshadow="2"
     inkscape:pageopacity="0.0"
     guidetolerance="10.0"
     gridtolerance="10.0"
     objecttolerance="10.0"
     borderopacity="1.0"
     bordercolor="#666666"
     pagecolor="#ffffff"
     id="base"
     inkscape:zoom="0.60279535"
     inkscape:cx="307.77624"
     inkscape:cy="466.50053"
     inkscape:window-x="20"
     inkscape:window-y="42"
     inkscape:current-layer="layer2"
     showgrid="false"
     showguides="true"
     inkscape:guide-bbox="true">
    <sodipodi:guide
       orientation="horizontal"
       position="761.5"
       id="guide1885" />
    <sodipodi:guide
       orientation="vertical"
       position="1.5"
       id="guide1887" />
    <sodipodi:guide
       orientation="horizontal"
       position="1.5"
       id="guide1889" />
    <sodipodi:guide
       orientation="vertical"
       position="601.5"
       id="guide1891" />
    <sodipodi:guide
       orientation="vertical"
       position="301.50081"
       id="guide1893" />
  </sodipodi:namedview>
  <desc
     id="desc22">Coat of Arms of Canton of Freiburg (Fribourg)</desc>
  <g
     inkscape:groupmode="layer"
     id="layer1"
     inkscape:label="Fond écu"
     style="opacity:1"
     sodipodi:insensitive="true">
    <path
       id="path1899"
       d="M 1.5,1.49998 L 1.5,460.3679 C 1.5,626.6785 135.81456,761.5 301.49999,761.5 C 467.18543,761.5 601.5,626.6785 601.5,460.3679 L 601.5,1.49998 L 1.5,1.49998 z"
       style="fill:#fcef3c;fill-opacity:1" />
  </g>
  <g
     inkscape:groupmode="layer"
     id="layer2"
     inkscape:label="Meubles"
     style="opacity:1"
     sodipodi:insensitive="true">
    <path
       id="path2567"
       d="M 412.9,147.399 C 359.567,147.399 318.9,199.399 301.5,228.066 C 284.1,199.399 243.433,147.399 190.1,147.399 C 136.767,147.399 92.1,192.732 92.1,278.066 C 92.1,363.4 153.568,470.066 301.5,606.733 C 449.433,470.066 510.9,363.399 510.9,278.066 C 510.9,192.733 466.233,147.399 412.9,147.399 z M 433.566,394.065 C 379.566,479.398 311.866,537.031 301.499,547.398 C 291.132,537.031 223.431,479.398 169.431,394.065 C 115.431,308.732 125.431,189.398 193.431,189.398 C 234.764,189.398 290.9,265.398 301.499,318.731 C 312.098,265.398 368.233,189.398 409.566,189.398 C 477.567,189.398 487.566,308.732 433.566,394.065 z"
       style="fill:#e20909" />
    <path
       id="path2569"
       d="M 510.9,439.931 C 510.9,354.598 449.432,247.931 301.5,111.264 C 153.567,247.931 92.1,354.598 92.1,439.931 C 92.1,525.265 136.767,570.597 190.1,570.597 C 243.433,570.597 284.1,518.597 301.5,489.931 C 318.9,518.597 359.567,570.597 412.9,570.597 C 466.233,570.597 510.9,525.265 510.9,439.931 z M 409.566,528.599 C 368.233,528.599 312.097,452.599 301.499,399.265 C 290.9,452.599 234.765,528.599 193.431,528.599 C 125.431,528.599 115.431,409.265 169.431,323.932 C 223.431,238.599 291.132,180.966 301.499,170.599 C 311.866,180.966 379.566,238.599 433.566,323.932 C 487.566,409.265 477.567,528.599 409.566,528.599 z"
       style="fill:#e20909" />
    <path
       id="path2571"
       d="M 466.496,302.764 C 432.87,246.347 379.072,182.931 301.499,111.264 C 281.12,130.092 262.381,148.349 245.219,166.061 M 276.525,523.823 C 287.202,511.796 295.66,499.55 301.499,489.931 C 318.899,518.597 359.566,570.597 412.899,570.597 C 466.232,570.597 510.899,525.265 510.899,439.931 C 510.899,414.866 505.595,387.96 494.355,358.994 M 216.971,196.288 C 129.732,293.331 92.099,373.162 92.099,439.931 C 92.099,525.265 136.766,570.597 190.099,570.597 C 210.53,570.597 229.103,562.966 245.221,551.939 M 216.974,521.713 C 208.88,526.109 200.913,528.599 193.431,528.599 C 125.431,528.599 115.431,409.265 169.431,323.932 C 195.372,282.939 224.475,248.338 248.864,222.299 M 466.497,415.232 C 474.389,475.744 454.822,528.599 409.566,528.599 C 368.233,528.599 312.097,452.599 301.499,399.265 C 295.351,430.203 273.881,468.767 248.865,495.7 M 276.523,194.177 C 289.119,181.962 298.205,173.893 301.5,170.598 C 311.867,180.965 379.567,238.598 433.567,323.931 C 440.591,335.032 446.533,346.707 451.405,358.621"
       stroke-miterlimit="18"
       style="fill:none;stroke:#000000;stroke-width:3;stroke-miterlimit:18" />
    <path
       id="path2573"
       d="M 386.024,521.712 C 473.266,424.667 510.9,344.836 510.9,278.066 C 510.9,192.733 466.233,147.399 412.9,147.399 C 392.469,147.399 373.897,155.03 357.779,166.058 M 136.503,415.233 C 170.129,471.65 223.926,535.066 301.5,606.733 C 321.878,587.906 340.615,569.649 357.778,551.938 M 326.473,194.174 C 315.796,206.201 307.338,218.447 301.499,228.066 C 284.099,199.399 243.432,147.399 190.099,147.399 C 136.766,147.399 92.099,192.732 92.099,278.066 C 92.099,303.13 97.402,330.034 108.641,358.999 M 136.501,302.765 C 128.609,242.254 148.175,189.399 193.431,189.399 C 234.764,189.399 290.9,265.399 301.499,318.732 C 307.646,287.795 329.117,249.231 354.133,222.298 M 326.474,523.822 C 313.879,536.036 304.794,544.104 301.499,547.399 C 291.132,537.032 223.431,479.399 169.431,394.066 C 162.334,382.85 156.342,371.047 151.442,359.005 M 386.024,196.284 C 394.119,191.888 402.086,189.398 409.567,189.398 C 477.568,189.398 487.567,308.731 433.567,394.065 C 407.626,435.059 378.522,469.66 354.132,495.699"
       stroke-miterlimit="18"
       style="fill:none;stroke:#000000;stroke-width:3;stroke-miterlimit:18" />
  </g>
  <g
     inkscape:groupmode="layer"
     id="layer3"
     inkscape:label="Reflet final"
     style="display:inline"
     sodipodi:insensitive="true">
    <path
       style="fill:url(#radialGradient3236);fill-opacity:1"
       d="M 1.5,1.5 L 1.5,460.3679 C 1.5,626.67854 135.81454,761.5 301.49993,761.5 C 467.1854,761.5 601.5,626.67854 601.5,460.3679 L 601.5,1.5 L 1.5,1.5 z "
       id="path2346" />
  </g>
  <g
     inkscape:groupmode="layer"
     id="layer4"
     inkscape:label="Contour final"
     style="display:inline"
     sodipodi:insensitive="true">
    <path
       style="fill:none;fill-opacity:1;stroke:#000000;stroke-width:3;stroke-miterlimit:4;stroke-dasharray:none;stroke-opacity:1"
       d="M 1.5,1.5 L 1.5,460.36794 C 1.5,626.67854 135.81454,761.5 301.49993,761.5 C 467.1854,761.5 601.5,626.67854 601.5,460.36794 L 601.5,1.5 L 1.5,1.5 z "
       id="path3239" />
  </g>
</svg>
